X: 4
T: The Mountain Top
R: reel
M: 4/4
L: 1/8
K: Gmaj
(dc)||BGAG (EGD)E|G2 (Bd) edgd|BGAG (EGD)E|GABd efgd|
BGAG (EGD)E|G2 (Bd) edgd|BGAG (EGD3/2)e/2|dcAF G2 gz||
|(B(d d2)) (eg)dB|d2 ef (g2 ~b2)|(B(d d2)) (eg)dB|AGAB AcBA|
(B(d d2)) (eg)dB|d2 (ef) gfga|bgaf gfed|egfa gedc||


Tune 529	Setting 11463

